X: 10618
T: Dowd's Favourite
R: reel
M: 4/4
K: Gminor
|:DGGA BGAF|CFAF dFcF|DGGF GABg|1 fdcA BG{A}GF:|2 fdcB AFcA||
B2dB fBdB|FBdB GecA|B2dB bBdB|FdcA BGG2|
BABd cBcd|BABd cAFA|GFGB Abag|fdcA BGG^f|
gd(3ddd gdbg|fc(3ccc fga^f|gd(3ddd gdbg|fdcA BGGa|
g2(3ag^f gabg|f2(3gf=e fgab|B2(3cBA Bbag|fdcA BG{A}GF|

